X: 10182
M: C
L: 1/8
K: A
ue |\
eA (cB/A/) (eA)aA | (fA)fg (ae)cA | B2(dc/B/) fBga | fedc Befg |
a2 (AB/c/) ecAa | (gA)(fA) gaec | dbca Bgfe | dcBc "_D.C. Fine."A2A |]


